resources/svg/regular/plus-circle.svg

<svg xmlns="http://www.w3.org/2000/svg" fill="currentColor" stroke="none" viewBox="0 0 24 24"><path d="M13 7h-2v4H7v2h4v4h2v-4h4v-2h-4z"/><path d="M12 2C6.486 2 2 6.486 2 12s4.486 10 10 10 10-4.486 10-10S17.514 2 12 2zm0 18c-4.411 0-8-3.589-8-8s3.589-8 8-8 8 3.589 8 8-3.589 8-8 8z"/></svg>

<svg xmlns="http://www.w3.org/2000/svg" fill="currentColor" stroke="none" viewBox="0 0 24 24"><path d="M13 7L11 7 11 11 7 11 7 13 11 13 11 17 13 17 13 13 17 13 17 11 13 11z"/><path d="M12,2C6.486,2,2,6.486,2,12s4.486,10,10,10c5.514,0,10-4.486,10-10S17.514,2,12,2z M12,20c-4.411,0-8-3.589-8-8 s3.589-8,8-8s8,3.589,8,8S16.411,20,12,20z"/></svg>
